X:9
T:Sikuri
R:waynu
O:Bolivia
Z:id:hn-waynu-9
M:2/4
L:1/8
Q:1/4=90
K:G
B/ddB/d | gg gg | f/ffa/f | e/eeg/e | d/d/B/dd/d/d/ :|
|: gf ff | ed dg |[M:3/4] f/edc/B/A/ GG |[M:2/4] A/AAc/A |
[1 g/g/d/g/ dg :|2 G3/GA/B/c/ |: dd/ef/g | [M:3/4] f/edc/B/A/ GG |
[M:2/4] A/AAc/A |1 G3/GA/B/c/ :|2 g/g/d/g/ dg ||

